libs/ui/packages/crypto-icons/src/svg/NEON.svg

<svg width="24" height="24" stroke-miterlimit="10" version="1.1" viewBox="0 0 24 24" xml:space="preserve" xmlns="http://www.w3.org/2000/svg">
  <path d="M24 12C24 18.6274 18.6274 24 12 24C5.37258 24 0 18.6274 0 12C0 5.37258 5.37258 0 12 0C18.6274 0 24 5.37258 24 12ZM7.35876 6.90213L11.8481 11.3915L11.8481 7.12697C11.8481 7.08468 11.8565 7.04281 11.8728 7.00377C11.889 6.96472 11.9128 6.92928 11.9428 6.89949C11.9728 6.8697 12.0085 6.84615 12.0477 6.83018C12.0868 6.81422 12.1287 6.80615 12.171 6.80647L17.2189 6.80647C17.2234 6.80631 17.2281 6.80623 17.2326 6.80625L17.2395 6.80637L17.2443 6.8064C17.2847 6.80699 17.3247 6.81525 17.3622 6.83076C17.4011 6.84687 17.4364 6.87048 17.4662 6.90024C17.4959 6.93 17.5196 6.96533 17.5357 7.00422C17.5518 7.0431 17.56 7.08477 17.56 7.12686L17.56 12.1415C17.5614 12.1536 17.5622 12.1659 17.5622 12.1782L17.5622 17.2297C17.5624 17.2719 17.5544 17.3139 17.5384 17.353C17.5225 17.3922 17.4989 17.4278 17.4691 17.4579C17.4393 17.4879 17.4039 17.5117 17.3649 17.5279C17.3258 17.5442 17.2839 17.5526 17.2417 17.5526C17.1972 17.5533 17.1531 17.5449 17.112 17.5281C17.0709 17.5113 17.0336 17.4861 17.0025 17.4545L17.0001 17.4545L12.5104 12.9649L12.5104 17.2298C12.5108 17.272 12.5027 17.3139 12.4868 17.3531C12.4708 17.3923 12.4473 17.4279 12.4174 17.4579C12.3876 17.4879 12.3522 17.5118 12.3132 17.5281C12.2741 17.5443 12.2323 17.5527 12.1899 17.5527L7.13095 17.5527L7.11977 17.5526C7.07727 17.5529 7.03515 17.5448 6.99583 17.5287C6.95651 17.5125 6.92079 17.4888 6.89073 17.4587C6.86069 17.4287 6.83692 17.393 6.82081 17.3536C6.80469 17.3144 6.79657 17.2722 6.79689 17.2297L6.79689 12.1783C6.79689 12.1522 6.80004 12.1264 6.80626 12.1013L6.80626 7.12695C6.80669 7.06312 6.82603 7.00085 6.86183 6.94801C6.89764 6.89517 6.94832 6.85413 7.00743 6.83007C7.06656 6.80601 7.13151 6.80001 7.19403 6.81284C7.25656 6.82566 7.31388 6.85673 7.35876 6.90213Z" fill="#df42ab" fill-rule="evenodd" opacity="1" stroke="none"/>
</svg>

<svg xmlns="http://www.w3.org/2000/svg" xml:space="preserve" width="24" height="24" viewBox="0 0 24 24" stroke-miterlimit="10"><path fill="#df42ab" fill-rule="evenodd" d="M24 12c0 6.627-5.373 12-12 12S0 18.627 0 12 5.373 0 12 0s12 5.373 12 12M7.359 6.902l4.49 4.49V7.127a.32.32 0 0 1 .322-.32h5.073a.32.32 0 0 1 .316.32v5.015l.002.036v5.052a.322.322 0 0 1-.45.298.3.3 0 0 1-.11-.073H17l-4.49-4.49v4.265a.32.32 0 0 1-.32.323H7.12a.32.32 0 0 1-.323-.323v-5.052a.3.3 0 0 1 .01-.077V7.127a.323.323 0 0 1 .552-.225"/></svg>
